X:405
T:Mouse In The Kitchen, The
R:jig
C:Colin Farrell
Z:hn-jig-405
M:6/8
L:1/8
K:A
c3 cde | dcA F2A | ~E3 EFA | ~B3 BAB |
c3 cde | dcA F2a | afe fec |1 Bce A2B :|2 Bce A3 ||
|: B3 BAB | c3 BAF | B3 BAB | cea fec |
B3 BAB | c3 BAF | afe fec |1 Bce ABc :|2 Bce fec ||
P:variations
|: c3 cde | dcA F2A | E2C EFA | B2A Bcd |
c3 cde | dcA F2a | afe fec |1 Bce A2B :|2 Bce A3 ||
|: B3 BAB | cBc BAF | B3 BAB | cea fec |
B3 BAB | cBc BAF | afe fec |1 Bce Adc :|2 Bce fec ||

